!!! OTL: Berkowitz357
!!! Chapter: 1
!!! Section: III
!!! Page: 87
!!! Mode: 
!!! Encoder: DJB
**kern
*staff1
*I"Piano
=1-
*clefG2
*k[f#c#]
*D:
*M5/8
8f#/L
8d/
8e/J
8f#/L
8a/J
=2
8dd\L
8cc#\
8ee\J
8dd\L
8b\J
=3
8a/L
8g#/
8b/J
8a/L
8f#/J
=4
8e/L
8d#/
8f#/J
8e/L
8A/J
=5
8f#/L
8d/
8e/J
8f#/L
8a/J
=6
8dd\L
8cc#\
8b\J
8a\L
8dd\J
=7
8ee\L
8dd\
8b\J
8a/L
8f#/J
=8
!!linebreak:original
8a/L
8g/
8e/J
4d/
==
*-
